!!!!SEGMENT: pl-wtm--r-2159_wysocki-kasper-napoleon-piesn.krn
!!!id: 18xx:2077
!!!COM: Wysocki, Kasper Napoleon
!!!OTL: Pieśń
!!!PDT:
!!!SMS-siglum: PL-Wtm
!!!SMS-shelfmark: R 2159
!!!NIFC-rismID: 1001141452
!!!URL-scan: http://repozytorium.nifc.pl/skany/pl-wtm-nut--r2159
!!!ONB-nifc: UWAGA: brak wpisanego tekstu słownego
!!!SMS-variant:
!!!SMS-altvar:
**kern	**kern	**kern
*part2	*part2	*part1
*staff3	*staff2	*staff1
*	*I"fp.	*I"gł.
*>[A,B,B,C]	*>[A,B,B,C]	*>[A,B,B,C]
*>A	*>A	*>A
*clefF4	*clefG2	*clefG2
*k[f#c#]	*k[f#c#]	*k[f#c#]
*M6/8	*M6/8	*M6/8
*all\right	*all\right	*all\right
=1	=1	=1
*	*	*^
!	!LO:TUP:b:problem:klamra łukowa	!	!
4D 4DD\	24A</LL	4r	2.rgg
.	24A</	.	.
.	24A</JJ	.	.
!	!LO:TX:t=P:problem:mixed beam	!	!
.	8A</L	.	.
!	!	!LO:TX:t=P:problem:kreska przez środek taktu	!
8A 8F# 8D\	8d\J	8r	.
4A 4F# 4D\	4f#/	4r	.
8A 8F# 8D\	8f#/	8r	.
=2	=2	=2	=2
4A 4G 4E 4C#\	4a/	4r	2.rgg
8A 8G 8E 8C#\	8e/	8r	.
4A 4F# 4D\	8.f#/L	4r	.
.	16e/K	.	.
8A 8F# 8D\	8d/J	8r	.
*	*	*v	*v
=3	=3	=3
4B 4A 4F# 4D#X\	4b\	4r
8B 8A 8F# 8D#\	8f#/	8r
4B 4G 4E\	8.g/L	4r
.	16f#/K	.
8B 8G 8E\	8e/J	8r
=4	=4	=4
*2\right	*	*
2.A 2.E 2.AA\	2.e 2.c#/	4r
.	.	8r
.	.	4r
.	.	8r
=5	=5	=5
!	!LO:TUP:a:problem:klamra łukowa	!
4C# 4CC#\	24A</LL	4r
.	24A</	.
.	24A</JJ	.
!	!LO:TX:t=P:problem:mixed beam	!
.	8A</L	.
8A 8G 8E 8C#\	8e\J	8r
4A 4G 4E 4C#\	4g\	4r
8A 8G 8E 8C#\	8g\	8r
=6	=6	=6
!	!LO:TUP:b:problem:klamra łukowa	!
4A 4F# 4D\	24f#/LL	4r
.	24f#/	.
.	24f#/JJ	.
.	8f#/L	.
8A 8F# 8D\	8a/J	8r
4B 4D 4GG\	4ee\	4r
8B 8D 8GG\	[8dd\	8r
=7	=7	=7
4B 4D 4GG\	8dd\L]	4r
.	8cc#\	.
8G 8E 8BB 8GG\	8b\J	8r
4F# 4D 4AA\	4a/	4r
8A 8F# 8D 8AA\	8d/	8r
=8	=8	=8
!	!LO:TUP:b:problem:klamra łukowa	!
4G 4C# 4AA/	24e/LL	4r
.	24e/	.
.	24e/JJ	.
.	8e/L	.
8G 8E 8C# 8AA/	8a/J	8r
4.A 4.F# 4.D\	4.d/	4r
.	.	8r
!!LO:LB:g=original
=9||	=9||	=9||
*>B	*>B	*>B
!	!LO:TX:a:t=[segno]	!LO:TX:a:t=[segno]
4D 4DD/	4a 4f# 4d 4A/	8a/L
.	.	8d/J
8D 8DD/	8a 8f# 8d 8A/	8f#/
4D 4DD/	4b 4g#X 4e#X 4d 4B/	4b\
8D 8DD/	8b 8g# 8e# 8d 8B/	8g#X/
=10	=10	=10
4D 4DD/	4a 4f# 4d 4c# 4A/	8a/L
.	.	8d/J
8D 8DD/	8a 8f# 8d 8A/	8f#/
4D 4DD/	4b 4g#X 4e#X 4d 4B/	4b/
8C# 8CC#/	8a 8gn 8en 8A/	8a/
=11	=11	=11
4AA 4AAA/	4a 4g 4e 4c#/	8e/
.	.	8d#X/
8AA 8AAA/	8a 8g 8e 8c#/	8e/
4AA 4AAA/	4a 4f# 4d/	4f#/
8AA 8AAA/	8a 8f# 8d 8A/	8f#/
=12	=12	=12
*	*^	*
4.AA 4.AAA/	8b:/L	4.c#<: 4.A<:/	8b/
.	8a/	.	8a/
.	8g/J	.	8g/
4.AA 4.AAA/	8e/L	4.c<# 4.A</	8e/
.	8e/J	.	8e/
.	8ryy	.	8r
*	*v	*v	*
=13	=13	=13
4AA#X 4AAA#y/	4a#X 4f# 4e 4c#/	8cc#\
.	.	8b#X\
8AA# 8AAA#/	8a# 8f# 8e 8c#/	8cc#\
4FF# 4FFF#/	4cc# 4a# 4f# 4e/	4cc#\
8FF# 8FFF#/	8cc# 8a# 8f# 8e/	8f#/
!!LO:LB:g=original
=14	=14	=14
4BB 4BBB/	4dd 4b 4f# 4d/	8dd\
.	.	8cc#\
8BB 8BBB/	8dd 8b 8f# 8d/	8b\
4C# 4CC#/	4b-X 4g 4e/	4b-X\
8AA 8AAA/	8a 8g 8e 8c#/	8a\
=15	=15	=15
4AA 4AAA/	4a 4f# 4d/	8a/
.	.	8g#X/
8AA 8AAA/	8a 8f# 8d 8A/	8a/
4AA 4AAA/	4a 4f# 4d 4A/	4dd\
8AA 8AAA/	8a 8f# 8d 8A/	8f#/
=16	=16	=16
4AA 4AAA/	4g 4e 4c#< 4A</	8g/
.	.	8f#/
8AA 8AAA/	8e 8c# 8A< 8G</	8e/
4.D 4.DD\	4.d 4.A< 4.F#</	8d/
.	.	8d/
.	.	8r
=17	=17	=17
2.BB 2.BBB\	2.d< 2.B< 2.F#</	8B/
.	.	8d/
.	.	8e/
.	.	8f#/
.	.	8e#X/
.	.	8f#/
=18	=18	=18
[>4.BB [>4.BBB\	[4.e [4.B< [4.G</	[4.b\
4BB] 4BBB\]	4e] 4B<] 4G</]	8b\L]
.	.	8a\J
8C# 8CC#\	8e 8A< 8G</	8g/
!!LO:PB:g=original
=19	=19	=19
4D 4DD\	4d 4A< 4F#</	8f#/L
.	.	8e/J
8D 8DD\	8f# 8d 8A/	8f#/
4AA 4AAA/	4g 4e 4c#< 4A</	8a/L
.	.	8e/J
8AA 8AAA/	8e 8c#< 8A< 8G</	8f#/
=20	=20	=20
2.D 2.DD\	2.d 2.A< 2.F#</	8d/
.	.	8d/
.	.	8r
.	.	4r
.	.	8r
=21	=21	=21
2.BB 2.BBB\	2.d 2.B< 2.F#</	8B/
.	.	8d/
.	.	8e/
.	.	8f#/
.	.	8e#X/
.	.	8f#/
=22	=22	=22
4.BB 4.BBB\	4.e 4.B< 4.G</	4.b\
4GG 4GGG/	4g 4d 4B/	8dd\L
.	.	8cc#\J
8GG 8GGG/	8g 8e 8B/	8b\
=23	=23	=23
4AA 4AAA/	4f# 4d 4A</	4a/
8AA 8AAA/	8f# 8d 8A</	8f#/
4AA 4AAA/	4g 4e 4c#< 4A</	8a/L
.	.	8e/J
8AA 8AAA/	8e 8c#< 8A< 8G</	8f#/
=24	=24	=24
2.D 2.DD\	2.d 2.A< 2.F#</	8d/
.	.	8d/
.	.	8r
.	.	4r
.	.	8r
!!LO:LB:g=original
=25||	=25||	=25||
*M3/4	*M3/4	*M3/4
2.FF# 2.FFF#/	2.cc# 2.a#X 2.f# 2.c#/	8cc#\
.	.	8cc#\
.	.	4.ff#\
.	.	8cc#\
=26	=26	=26
!LO:TX:b:t=8	!	!
4FF# 4FFF#/	4cc# 4a#X 4f# 4c#/	8a#X/
.	.	8f#/
!LO:TX:b:t=8	!	!
4FF# 4FFF#/	4cc# 4g#X 4e#X 4c#/	8g#X/L
.	.	8a#/J
!LO:TX:b:t=8	!	!
4FF# 4FFF#/	4cc# 4a# 4f# 4c#/	4f#/
=27	=27	=27
!LO:TX:b:t=8	!	!
2.FF# 2.FFF#/	2.cc# 2.a#X 2.f# 2.c#/	8cc#\
.	.	8cc#\
.	.	4.ff#\
.	.	8cc#\
=28	=28	=28
!LO:TX:b:t=8	!	!
4FF# 4FFF#/	4cc# 4a#X 4f# 4c#/	8a#X/
.	.	8f#/
!LO:TX:b:t=8	!	!
4FF# 4FFF#/	4cc# 4g#X 4e#X 4c#/	8g#X/L
.	.	8cc#/J
!LO:TX:b:t=8	!	!
4FF# 4FFF#/	4cc# 4a# 4f# 4c#/	4f#/
=29||	=29||	=29||
*M6/8	*M6/8	*M6/8
4G 4E 4C# 4AA/	8aM</L	4r
.	8g#X/	.
8G 8E 8C# 8AA/	8a/J	8r
.	8qa/	.
4G 4E 4C# 4AA/	4ee\	4r
8G 8E 8C# 8AA/	8a\	8r
=30	=30	=30
4A 4F# 4D\	8.ff#\L	4r
.	16ee\K	.
8A 8F# 8D\	8dd\J	8r
.	16qqdd/LL	.
.	16qqee/JJ	.
4B 4D 4GG\	8dd\L	4r
.	8cc#\	.
8B 8D 8GG\	8b\J	8r
!!LO:LB:g=original
=31	=31	=31
4A 4F# 4D 4AA\	8b/L	4r
.	8a/	.
8A 8F# 8D 8AA\	8f#/J	8r
4G 4C# 4AA\	8e/L	4r
.	8A/	.
.	8qA/	.
8G 8E 8C# 8AA\	8a/J	8r
=32	=32	=32
4F# 4D\	4d/	4r
8D 8DD\	16d<LL 16F#</	8r
.	16d<JJ 16F#</	.
4.D 4.DD\	4.d< 4.F#</	4r
!	!LO:TX:a:t=[segno]	!LO:TX:a:t=[segno]
.	.	8r
=33:!|	=33:!|	=33:!|
*>C	*>C	*>C
!	!LO:TUP:a:problem:klamra łukowa	!
4D 4DD\	24A</LL	4r
.	24A</	.
.	24A</JJ	.
!	!LO:TX:t=P:problem:mixed beam	!
.	8A</L	.
8A 8F# 8D\	8e\J	8r
4A 4F# 4D\	4f#/	4r
8A 8F# 8D\	8f#/	8r
=34	=34	=34
4A 4G 4E 4C#\	4a/	4r
8A 8G 8E 8C#\	8e/	8r
4A 4F# 4D\	8.f#/L	4r
.	16e/K	.
8A 8F# 8D\	8d/J	8r
=35	=35	=35
4B 4A 4F# 4D#X\	4b\	4r
8B 8A 8F# 8D#\	8f#/	8r
4B 4G 4E\	8.g/L	4r
.	16f#/K	.
8B 8G 8E\	8e/J	8r
=36	=36	=36
2.A 2.E 2.AA\	2.e 2.c#/	4r
.	.	8r
.	.	4r
.	.	8r
=37	=37	=37
!	!LO:TUP:a:problem:klamra łukowa	!
4C# 4CC#/	24A</LL	4r
.	24A</	.
.	24A</JJ	.
!	!LO:TX:t=P:problem:mixed beam	!
.	8A</L	.
8A 8G 8E 8C#\	8e\J	8r
4A 4G 4E 4C#\	4g\	4r
8A 8G 8E 8C#\	8g\	8r
!!LO:PB:g=original
=38	=38	=38
!	!LO:TUP:a:problem:klamra łukowa	!
4A 4F# 4D\	24f#/LL	2.ryy
.	24f#/	.
.	24f#/JJ	.
.	8f#/L	.
8A 8F# 8D\	8a/J	.
.	8qa/	.
4B 4D 4GG\	4ee\	.
8B 8D 8GG\	[8dd\	.
=39	=39	=39
4B 4D 4GG\	8dd\L]	2.ryy
.	8cc#\	.
8G 8E 8BB 8GG\	8b\J	.
4F# 4D 4AA\	4a/	.
8A 8F# 8D 8AA\	8d/	.
=40	=40	=40
!	!LO:TUP:b:problem:klamra łukowa	!
4G 4C# 4AA/	24e/LL	2.ryy
.	24e/	.
.	24e/JJ	.
.	8e/L	.
8G 8C# 8AA/	8a/J	.
.	8qa/	.
4.A 4.F# 4.D\	4.d/	.
==	==	==
*-	*-	*-
!!!system-decoration: s1{(s2,s3)}
!!!RDF**kern: > = above
!!!RDF**kern: < = below
!!!ENC: Berenika Jozajtis
!!!END: 2021-05-10
!!!ENC: Andrzej Kubiczek
!!!END: 2021-05-30
